packages/icons/src/components/Icon/assets/small-outline/calendar-range.svg

<svg width="16" height="16" viewBox="0 0 16 16" fill="none" xmlns="http://www.w3.org/2000/svg">
<path fill-rule="evenodd" clip-rule="evenodd" d="M4.28788 1C4.63933 1 4.92424 1.28491 4.92424 1.63636V2.59091H11.0758V1.63636C11.0758 1.28491 11.3607 1 11.7121 1C12.0636 1 12.3485 1.28491 12.3485 1.63636V2.59091H12.7727C14.0028 2.59091 15 3.58809 15 4.81818V12.7727C15 14.0028 14.0028 15 12.7727 15H3.22727C1.99718 15 1 14.0028 1 12.7727V4.81818C1 3.58809 1.99718 2.59091 3.22727 2.59091H3.65152V1.63636C3.65152 1.28491 3.93642 1 4.28788 1ZM3.22727 3.86364C2.70009 3.86364 2.27273 4.291 2.27273 4.81818V5.45676C2.56204 5.31933 2.88567 5.24242 3.22727 5.24242H12.7727C13.1143 5.24242 13.438 5.31933 13.7273 5.45676V4.81818C13.7273 4.291 13.2999 3.86364 12.7727 3.86364H3.22727ZM13.7273 7.4697C13.7273 6.94252 13.2999 6.51515 12.7727 6.51515H3.22727C2.70009 6.51515 2.27273 6.94252 2.27273 7.4697V12.7727C2.27273 13.2999 2.70009 13.7273 3.22727 13.7273H12.7727C13.2999 13.7273 13.7273 13.2999 13.7273 12.7727V7.4697ZM7.36364 8.5303C7.36364 8.17885 7.64855 7.89394 8 7.89394H8.0053C8.35676 7.89394 8.64167 8.17885 8.64167 8.5303V8.53561C8.64167 8.88706 8.35676 9.17197 8.0053 9.17197H8C7.64855 9.17197 7.36364 8.88706 7.36364 8.53561V8.5303ZM8.95455 8.5303C8.95455 8.17885 9.23946 7.89394 9.59091 7.89394H9.59621C9.94767 7.89394 10.2326 8.17885 10.2326 8.5303V8.53561C10.2326 8.88706 9.94767 9.17197 9.59621 9.17197H9.59091C9.23946 9.17197 8.95455 8.88706 8.95455 8.53561V8.5303ZM10.5455 8.5303C10.5455 8.17885 10.8304 7.89394 11.1818 7.89394H11.1871C11.5386 7.89394 11.8235 8.17885 11.8235 8.5303V8.53561C11.8235 8.88706 11.5386 9.17197 11.1871 9.17197H11.1818C10.8304 9.17197 10.5455 8.88706 10.5455 8.53561V8.5303ZM4.18182 10.1212C4.18182 9.76976 4.46673 9.48485 4.81818 9.48485H4.82349C5.17494 9.48485 5.45985 9.76976 5.45985 10.1212V10.1265C5.45985 10.478 5.17494 10.7629 4.82349 10.7629H4.81818C4.46673 10.7629 4.18182 10.478 4.18182 10.1265V10.1212ZM5.77273 10.1212C5.77273 9.76976 6.05764 9.48485 6.40909 9.48485H6.41439C6.76585 9.48485 7.05076 9.76976 7.05076 10.1212V10.1265C7.05076 10.478 6.76585 10.7629 6.41439 10.7629H6.40909C6.05764 10.7629 5.77273 10.478 5.77273 10.1265V10.1212ZM7.36364 10.1212C7.36364 9.76976 7.64855 9.48485 8 9.48485H8.0053C8.35676 9.48485 8.64167 9.76976 8.64167 10.1212V10.1265C8.64167 10.478 8.35676 10.7629 8.0053 10.7629H8C7.64855 10.7629 7.36364 10.478 7.36364 10.1265V10.1212ZM8.95455 10.1212C8.95455 9.76976 9.23946 9.48485 9.59091 9.48485H9.59621C9.94767 9.48485 10.2326 9.76976 10.2326 10.1212V10.1265C10.2326 10.478 9.94767 10.7629 9.59621 10.7629H9.59091C9.23946 10.7629 8.95455 10.478 8.95455 10.1265V10.1212ZM10.5455 10.1212C10.5455 9.76976 10.8304 9.48485 11.1818 9.48485H11.1871C11.5386 9.48485 11.8235 9.76976 11.8235 10.1212V10.1265C11.8235 10.478 11.5386 10.7629 11.1871 10.7629H11.1818C10.8304 10.7629 10.5455 10.478 10.5455 10.1265V10.1212ZM4.18182 11.7121C4.18182 11.3607 4.46673 11.0758 4.81818 11.0758H4.82349C5.17494 11.0758 5.45985 11.3607 5.45985 11.7121V11.7174C5.45985 12.0689 5.17494 12.3538 4.82349 12.3538H4.81818C4.46673 12.3538 4.18182 12.0689 4.18182 11.7174V11.7121ZM5.77273 11.7121C5.77273 11.3607 6.05764 11.0758 6.40909 11.0758H6.41439C6.76585 11.0758 7.05076 11.3607 7.05076 11.7121V11.7174C7.05076 12.0689 6.76585 12.3538 6.41439 12.3538H6.40909C6.05764 12.3538 5.77273 12.0689 5.77273 11.7174V11.7121ZM7.36364 11.7121C7.36364 11.3607 7.64855 11.0758 8 11.0758H8.0053C8.35676 11.0758 8.64167 11.3607 8.64167 11.7121V11.7174C8.64167 12.0689 8.35676 12.3538 8.0053 12.3538H8C7.64855 12.3538 7.36364 12.0689 7.36364 11.7174V11.7121ZM8.95455 11.7121C8.95455 11.3607 9.23946 11.0758 9.59091 11.0758H9.59621C9.94767 11.0758 10.2326 11.3607 10.2326 11.7121V11.7174C10.2326 12.0689 9.94767 12.3538 9.59621 12.3538H9.59091C9.23946 12.3538 8.95455 12.0689 8.95455 11.7174V11.7121Z" fill="black"/>
</svg>

<svg xmlns="http://www.w3.org/2000/svg" width="16" height="16" fill="none" viewBox="0 0 16 16">
    <path d="M4.288 1c.351 0 .636.285.636.636v.955h6.152v-.955a.636.636 0 1 1 1.272 0v.955h.425c1.23 0 2.227.997 2.227 2.227v7.955c0 1.23-.997 2.227-2.227 2.227H3.227A2.227 2.227 0 0 1 1 12.773V4.818c0-1.23.997-2.227 2.227-2.227h.425v-.955c0-.351.284-.636.636-.636m-1.06 2.864a.955.955 0 0 0-.955.954v.639a2.2 2.2 0 0 1 .954-.215h9.546c.341 0 .665.077.954.215v-.639a.955.955 0 0 0-.954-.954zm10.5 3.606a.955.955 0 0 0-.955-.955H3.227a.955.955 0 0 0-.954.955v5.303c0 .527.427.954.954.954h9.546a.955.955 0 0 0 .954-.954zM7.363 8.53c0-.351.285-.636.636-.636h.005c.352 0 .637.285.637.636v.006a.636.636 0 0 1-.637.636H8a.636.636 0 0 1-.636-.636zm1.59 0c0-.351.285-.636.637-.636h.005c.352 0 .637.285.637.636v.006a.636.636 0 0 1-.637.636H9.59a.636.636 0 0 1-.636-.636zm1.592 0c0-.351.284-.636.636-.636h.005c.352 0 .636.285.636.636v.006a.636.636 0 0 1-.636.636h-.005a.636.636 0 0 1-.636-.636zm-6.364 1.591c0-.351.285-.636.636-.636h.005c.352 0 .637.285.637.636v.005a.636.636 0 0 1-.637.637h-.005a.636.636 0 0 1-.636-.636zm1.59 0c0-.351.286-.636.637-.636h.005c.352 0 .637.285.637.636v.005a.636.636 0 0 1-.637.637H6.41a.636.636 0 0 1-.636-.636zm1.592 0c0-.351.285-.636.636-.636h.005c.352 0 .637.285.637.636v.005a.636.636 0 0 1-.637.637H8a.636.636 0 0 1-.636-.636zm1.59 0c0-.351.285-.636.637-.636h.005c.352 0 .637.285.637.636v.005a.636.636 0 0 1-.637.637H9.59a.636.636 0 0 1-.636-.636zm1.592 0c0-.351.284-.636.636-.636h.005c.352 0 .636.285.636.636v.005a.636.636 0 0 1-.636.637h-.005a.636.636 0 0 1-.636-.636zm-6.364 1.591c0-.351.285-.636.636-.636h.005c.352 0 .637.285.637.636v.005a.636.636 0 0 1-.637.637h-.005a.636.636 0 0 1-.636-.637zm1.59 0c0-.351.286-.636.637-.636h.005c.352 0 .637.285.637.636v.005a.636.636 0 0 1-.637.637H6.41a.636.636 0 0 1-.636-.637zm1.592 0c0-.351.285-.636.636-.636h.005c.352 0 .637.285.637.636v.005a.636.636 0 0 1-.637.637H8a.636.636 0 0 1-.636-.637zm1.59 0c0-.351.285-.636.637-.636h.005c.352 0 .637.285.637.636v.005a.636.636 0 0 1-.637.637H9.59a.636.636 0 0 1-.636-.637z" clip-rule="evenodd"/>
</svg>
